Dominus_Dark_Funeral/scalable/apps/evolution-tasks.svg

<?xml version="1.0" encoding="UTF-8" standalone="no"?><svg xmlns:dc="http://purl.org/dc/elements/1.1/" xmlns:cc="http://creativecommons.org/ns#" xmlns:rdf="http://www.w3.org/1999/02/22-rdf-syntax-ns#" xmlns="http://www.w3.org/2000/svg" xmlns:xlink="http://www.w3.org/1999/xlink" width="48" height="48" viewBox="0 0 12.7 12.7"><metadata><rdf:RDF><cc:Work><dc:format>image/svg+xml</dc:format><dc:type rdf:resource="http://purl.org/dc/dcmitype/StillImage"/><dc:title/></cc:Work></rdf:RDF></metadata><defs><linearGradient id="h"><stop offset="0"/><stop offset="1" stop-opacity=".01"/></linearGradient><linearGradient id="g"><stop offset="0" stop-color="#7c916f"/><stop offset=".4" stop-color="#c4c8b7"/><stop offset=".67" stop-color="#e3f4d7"/><stop offset="1" stop-color="#5d6c53"/></linearGradient><linearGradient id="f"><stop offset="0"/><stop offset="1" stop-opacity="0"/></linearGradient><linearGradient id="c"><stop offset="0" stop-color="#ededed"/><stop offset=".25" stop-color="#fff"/><stop offset=".5" stop-color="#f6f6f6"/><stop offset="1" stop-color="#ccc"/></linearGradient><linearGradient id="d"><stop offset="0" stop-color="#fff"/><stop offset=".53" stop-color="#8b8b8b"/><stop offset=".63" stop-color="#a5a5a5"/><stop offset=".7" stop-color="#f4f4f4"/><stop offset=".75" stop-color="#bbb"/><stop offset="1" stop-color="#b1b1b1"/></linearGradient><filter id="k" x="-.06" width="1.13" y="-.13" height="1.25"><feGaussianBlur stdDeviation=".7"/></filter><radialGradient xlink:href="#a" id="l" gradientUnits="userSpaceOnUse" gradientTransform="matrix(.07994 0 0 .19268 1.45 -8.07)" cx="61.33" cy="49.17" fx="61.33" fy="49.17" r="50.67"/><radialGradient id="a" cx="48" cy="-.21" r="55.15" gradientTransform="matrix(.9792 0 0 .9725 133 20.88)" gradientUnits="userSpaceOnUse"><stop offset="0" stop-color="#1a1a1a"/><stop offset=".52" stop-color="#1a1a1a"/><stop offset=".66" stop-color="#424242"/><stop offset=".76" stop-color="#131313"/><stop offset="1" stop-color="#1a1a1a"/></radialGradient><radialGradient xlink:href="#b" id="m" gradientUnits="userSpaceOnUse" gradientTransform="matrix(.11625 0 0 .2753 -.78 -13.6)" cx="61.33" cy="66.67" fx="61.33" fy="66.67" r="50.67"/><radialGradient id="b" cx="48" cy="-.21" r="55.15" gradientTransform="matrix(.9792 0 0 .9725 133 20.88)" gradientUnits="userSpaceOnUse"><stop offset="0" stop-color="#878787"/><stop offset=".36" stop-color="#646464"/><stop offset=".62" stop-color="#2d2d2d"/><stop offset=".76" stop-color="#232323"/><stop offset="1" stop-color="#1f1f1f"/></radialGradient><filter id="n"><feGaussianBlur stdDeviation=".78"/></filter><radialGradient xlink:href="#c" id="o" gradientUnits="userSpaceOnUse" gradientTransform="matrix(.15928 0 0 .16646 -6.25 -9.75)" cx="91.46" cy="103.26" fx="91.46" fy="103.26" r="37.36"/><filter id="p" x="-.04" width="1.08" y="-.11" height="1.23"><feGaussianBlur stdDeviation=".76"/></filter><linearGradient xlink:href="#d" id="q" x1="80.52" y1="15.68" x2="80.52" y2="32.14" gradientUnits="userSpaceOnUse" gradientTransform="matrix(.06377 0 0 .06655 2.44 .47)"/><linearGradient xlink:href="#e" id="r" gradientUnits="userSpaceOnUse" gradientTransform="matrix(.06508 0 0 -.0831 2.35 2.43)" x1="74.64" y1="18.68" x2="74.64" y2="3.73"/><linearGradient id="e"><stop offset="0" stop-color="#fff"/><stop offset="1" stop-color="#555"/></linearGradient><linearGradient xlink:href="#f" id="j" gradientUnits="userSpaceOnUse" x1="1.23" y1="284.53" x2="16.02" y2="298.18" gradientTransform="translate(0 -284.3)"/><radialGradient xlink:href="#g" id="i" cx="8.57" cy="289.08" fx="8.57" fy="289.08" r="5.35" gradientTransform="matrix(-2.18377 2.59732 -1.34426 -1.13022 414.53 306.22)" gradientUnits="userSpaceOnUse"/></defs><path fill="url(#i)" d="M6.35.1C4.81.1 3.57.39 2.66.97A3.67 3.67 0 0 0 1 4.22c0 1.91 1.54 4.47 2.01 5.2.54.85 1.13 1.61 1.65 2.16.68.7 1.21 1.03 1.69 1.03s1.01-.33 1.69-1.03a15.2 15.2 0 0 0 1.65-2.15c.47-.74 2-3.3 2-5.21 0-1.42-.57-2.54-1.65-3.25A6.75 6.75 0 0 0 6.35.09z"/><path fill="url(#j)" opacity=".5" d="M7.22 12.27c.25-.16.52-.37.82-.69a15.2 15.2 0 0 0 1.65-2.15c.23-.37.74-1.2 1.18-2.17.22-.48.43-1 .58-1.52.15-.52.25-1.04.25-1.52l-.02-.18-2.46-2.45-.65.66L7.22.89 3.45 8.5z"/><path opacity=".3" d="M6.35.1C4.81.1 3.57.39 2.66.97A3.67 3.67 0 0 0 1 4.22c0 1.91 1.54 4.47 2.01 5.2.54.85 1.13 1.61 1.65 2.16.68.7 1.21 1.03 1.69 1.03s1.01-.33 1.69-1.03a15.2 15.2 0 0 0 1.65-2.15c.47-.74 2-3.3 2-5.21 0-1.42-.57-2.54-1.65-3.25A6.75 6.75 0 0 0 6.35.09zm0 .03C6.91.15 7.44.2 7.9.31a5.82 5.82 0 0 1 1.6.66 3.65 3.65 0 0 1 1.24 1.36c.14.27.25.57.32.88a4.61 4.61 0 0 1-.14 2.53c-.15.52-.36 1.04-.58 1.52-.44.97-.95 1.8-1.18 2.17a15.2 15.2 0 0 1-1.65 2.15 4.9 4.9 0 0 1-.92.78.96.96 0 0 1-.24.1.96.96 0 0 1-.24-.1 4.76 4.76 0 0 1-.92-.78 14.41 14.41 0 0 1-1.65-2.15 19.2 19.2 0 0 1-1.18-2.17c-.22-.48-.43-1-.58-1.52a4.6 4.6 0 0 1-.14-2.52 3.73 3.73 0 0 1 .84-1.64 3.65 3.65 0 0 1 1.45-1A6.83 6.83 0 0 1 6.35.13z"/><path filter="url(#k)" fill-rule="evenodd" opacity=".92" d="M37.98 2h26.67v13.33H37.98z" transform="matrix(.06494 0 0 .06655 3.02 .74)"/><path fill="url(#l)" d="M3.88 1.4c-.3 0-.53.24-.53.54v6.3c0 .2.16.35.36.35h5.28c.2 0 .35-.16.35-.35v-6.3c0-.3-.23-.53-.53-.53z"/><path fill="url(#m)" d="M3.84 1.54c-.2 0-.35.16-.35.36v6.38c0 .1.08.18.17.18h5.37c.1 0 .18-.08.18-.18V1.9c0-.2-.16-.36-.36-.36z"/><path filter="url(#n)" fill="#191919" d="M15.09 19h71.99c.97 0 1.75.78 1.75 1.75v67.42c-.45 6.24-1.18 13.61-2.2 18.7 0 .98-.78 1.76-1.75 1.76-4.27 1.1-10.02.61-15.4.8h-55.4c-.97 0-.75-.78-.75-1.76V20.75c0-.97.79-1.75 1.76-1.75z" transform="matrix(.06648 0 0 .06727 2.95 .8)"/><path fill="url(#o)" d="M4.02 2.14a.08.08 0 0 0-.07.07v5.7c0 .04.04.07.08.07h3.56c.39 0 .78-.13.93-.2.01 0 .03-.01.03-.03l.05-.17a6.54 6.54 0 0 0 .14-.94V2.21a.08.08 0 0 0-.07-.07H4.03z"/><path filter="url(#p)" fill-opacity=".64" d="M27.33 12.67h49c1.26 4.58 1.15 11.7-.3 17.9l-49 .1c-1.77-5.78-2.23-13.3.3-18z" transform="matrix(.0629 0 0 .06408 3.1 .77)"/><rect fill="url(#q)" width="3.06" height="1.06" x="4.82" y="1.54" rx="0" ry="0"/><path fill="url(#r)" d="M5.48 1.76h1.74V.87H5.48z"/><path d="M4.17 5.75l1.26 1.5 3.25-3.39L5.51 6.1l-.7-1.05z" fill="#729ed4" fill-rule="evenodd"/></svg>

<?xml version="1.0" encoding="UTF-8" standalone="no"?>
<svg
   xmlns:dc="http://purl.org/dc/elements/1.1/"
   xmlns:cc="http://creativecommons.org/ns#"
   xmlns:rdf="http://www.w3.org/1999/02/22-rdf-syntax-ns#"
   xmlns:svg="http://www.w3.org/2000/svg"
   xmlns="http://www.w3.org/2000/svg"
   xmlns:xlink="http://www.w3.org/1999/xlink"
   xmlns:sodipodi="http://sodipodi.sourceforge.net/DTD/sodipodi-0.dtd"
   xmlns:inkscape="http://www.inkscape.org/namespaces/inkscape"
   width="48"
   height="48"
   viewBox="0 0 12.7 12.7"
   version="1.1"
   id="svg114"
   sodipodi:docname="evolution-tasks.svg"
   inkscape:version="0.92.4 (5da689c313, 2019-01-14)">
  <sodipodi:namedview
     pagecolor="#ffffff"
     bordercolor="#666666"
     borderopacity="1"
     objecttolerance="10"
     gridtolerance="10"
     guidetolerance="10"
     inkscape:pageopacity="0"
     inkscape:pageshadow="2"
     inkscape:window-width="1112"
     inkscape:window-height="480"
     id="namedview116"
     showgrid="false"
     inkscape:zoom="4.9166667"
     inkscape:cx="2.1355932"
     inkscape:cy="24"
     inkscape:window-x="0"
     inkscape:window-y="25"
     inkscape:window-maximized="0"
     inkscape:current-layer="svg114" />
  <metadata
     id="metadata2">
    <rdf:RDF>
      <cc:Work>
        <dc:format>image/svg+xml</dc:format>
        <dc:type
           rdf:resource="http://purl.org/dc/dcmitype/StillImage" />
        <dc:title></dc:title>
      </cc:Work>
    </rdf:RDF>
  </metadata>
  <defs
     id="defs88">
    <linearGradient
       id="h">
      <stop
         offset="0"
         id="stop4" />
      <stop
         offset="1"
         stop-opacity=".01"
         id="stop6" />
    </linearGradient>
    <linearGradient
       id="g">
      <stop
         offset="0"
         stop-color="#7c916f"
         id="stop9" />
      <stop
         offset=".4"
         stop-color="#c4c8b7"
         id="stop11" />
      <stop
         offset=".67"
         stop-color="#e3f4d7"
         id="stop13" />
      <stop
         offset="1"
         stop-color="#5d6c53"
         id="stop15" />
    </linearGradient>
    <linearGradient
       id="f">
      <stop
         offset="0"
         id="stop18" />
      <stop
         offset="1"
         stop-opacity="0"
         id="stop20" />
    </linearGradient>
    <linearGradient
       id="c">
      <stop
         offset="0"
         stop-color="#ededed"
         id="stop23" />
      <stop
         offset=".25"
         stop-color="#fff"
         id="stop25" />
      <stop
         offset=".5"
         stop-color="#f6f6f6"
         id="stop27" />
      <stop
         offset="1"
         stop-color="#ccc"
         id="stop29" />
    </linearGradient>
    <linearGradient
       id="d">
      <stop
         offset="0"
         stop-color="#fff"
         id="stop32" />
      <stop
         offset=".53"
         stop-color="#8b8b8b"
         id="stop34" />
      <stop
         offset=".63"
         stop-color="#a5a5a5"
         id="stop36" />
      <stop
         offset=".7"
         stop-color="#f4f4f4"
         id="stop38" />
      <stop
         offset=".75"
         stop-color="#bbb"
         id="stop40" />
      <stop
         offset="1"
         stop-color="#b1b1b1"
         id="stop42" />
    </linearGradient>
    <filter
       id="k"
       x="-.06"
       width="1.13"
       y="-.13"
       height="1.25">
      <feGaussianBlur
         stdDeviation=".7"
         id="feGaussianBlur45" />
    </filter>
    <radialGradient
       xlink:href="#a"
       id="l"
       gradientUnits="userSpaceOnUse"
       gradientTransform="matrix(0.07994,0,0,0.19268,1.45,-8.07)"
       cx="61.33"
       cy="49.17"
       fx="61.33"
       fy="49.17"
       r="50.67" />
    <radialGradient
       id="a"
       cx="48"
       cy="-.21"
       r="55.15"
       gradientTransform="matrix(.9792 0 0 .9725 133 20.88)"
       gradientUnits="userSpaceOnUse">
      <stop
         offset="0"
         stop-color="#1a1a1a"
         id="stop49" />
      <stop
         offset=".52"
         stop-color="#1a1a1a"
         id="stop51" />
      <stop
         offset=".66"
         stop-color="#424242"
         id="stop53" />
      <stop
         offset=".76"
         stop-color="#131313"
         id="stop55" />
      <stop
         offset="1"
         stop-color="#1a1a1a"
         id="stop57" />
    </radialGradient>
    <radialGradient
       xlink:href="#b"
       id="m"
       gradientUnits="userSpaceOnUse"
       gradientTransform="matrix(0.11625,0,0,0.2753,-0.78000003,-13.6)"
       cx="61.33"
       cy="66.67"
       fx="61.33"
       fy="66.67"
       r="50.67" />
    <radialGradient
       id="b"
       cx="48"
       cy="-.21"
       r="55.15"
       gradientTransform="matrix(.9792 0 0 .9725 133 20.88)"
       gradientUnits="userSpaceOnUse">
      <stop
         offset="0"
         stop-color="#878787"
         id="stop61" />
      <stop
         offset=".36"
         stop-color="#646464"
         id="stop63" />
      <stop
         offset=".62"
         stop-color="#2d2d2d"
         id="stop65" />
      <stop
         offset=".76"
         stop-color="#232323"
         id="stop67" />
      <stop
         offset="1"
         stop-color="#1f1f1f"
         id="stop69" />
    </radialGradient>
    <filter
       id="n">
      <feGaussianBlur
         stdDeviation=".78"
         id="feGaussianBlur72" />
    </filter>
    <radialGradient
       xlink:href="#c"
       id="o"
       gradientUnits="userSpaceOnUse"
       gradientTransform="matrix(0.15928,0,0,0.16646,-6.25,-9.75)"
       cx="91.46"
       cy="103.26"
       fx="91.46"
       fy="103.26"
       r="37.36" />
    <filter
       id="p"
       x="-.04"
       width="1.08"
       y="-.11"
       height="1.23">
      <feGaussianBlur
         stdDeviation=".76"
         id="feGaussianBlur76" />
    </filter>
    <linearGradient
       xlink:href="#d"
       id="q"
       x1="80.52"
       y1="15.68"
       x2="80.52"
       y2="32.14"
       gradientUnits="userSpaceOnUse"
       gradientTransform="matrix(0.06377,0,0,0.06655,2.44,0.47)" />
    <linearGradient
       xlink:href="#e"
       id="r"
       gradientUnits="userSpaceOnUse"
       gradientTransform="matrix(0.06508,0,0,-0.0831,2.35,2.43)"
       x1="74.64"
       y1="18.68"
       x2="74.64"
       y2="3.73" />
    <linearGradient
       id="e">
      <stop
         offset="0"
         stop-color="#fff"
         id="stop81" />
      <stop
         offset="1"
         stop-color="#555"
         id="stop83" />
    </linearGradient>
    <linearGradient
       xlink:href="#f"
       id="j"
       gradientUnits="userSpaceOnUse"
       x1="1.23"
       y1="284.53"
       x2="16.02"
       y2="298.18"
       gradientTransform="translate(0,-284.3)" />
    <radialGradient
       xlink:href="#g"
       id="i"
       cx="8.57"
       cy="289.08"
       fx="8.57"
       fy="289.08"
       r="5.35"
       gradientTransform="matrix(-2.18377,2.59732,-1.34426,-1.13022,414.53,306.22)"
       gradientUnits="userSpaceOnUse" />
  </defs>
  <path
     d="M 6.35,0.1 C 4.81,0.1 3.57,0.39 2.66,0.97 A 3.67,3.67 0 0 0 1,4.22 c 0,1.91 1.54,4.47 2.01,5.2 0.54,0.85 1.13,1.61 1.65,2.16 0.68,0.7 1.21,1.03 1.69,1.03 0.48,0 1.01,-0.33 1.69,-1.03 A 15.2,15.2 0 0 0 9.69,9.43 c 0.47,-0.74 2,-3.3 2,-5.21 0,-1.42 -0.57,-2.54 -1.65,-3.25 A 6.75,6.75 0 0 0 6.35,0.09 Z"
     id="path90"
     style="fill:url(#i)"
     inkscape:connector-curvature="0" />
  <path
     d="M 7.22,12.27 C 7.47,12.11 7.74,11.9 8.04,11.58 A 15.2,15.2 0 0 0 9.69,9.43 C 9.92,9.06 10.43,8.23 10.87,7.26 11.09,6.78 11.3,6.26 11.45,5.74 11.6,5.22 11.7,4.7 11.7,4.22 L 11.68,4.04 9.22,1.59 8.57,2.25 7.22,0.89 3.45,8.5 Z"
     id="path92"
     style="opacity:0.5;fill:url(#j)"
     inkscape:connector-curvature="0" />
  <path
     d="M 6.35,0.1 C 4.81,0.1 3.57,0.39 2.66,0.97 A 3.67,3.67 0 0 0 1,4.22 c 0,1.91 1.54,4.47 2.01,5.2 0.54,0.85 1.13,1.61 1.65,2.16 0.68,0.7 1.21,1.03 1.69,1.03 0.48,0 1.01,-0.33 1.69,-1.03 A 15.2,15.2 0 0 0 9.69,9.43 c 0.47,-0.74 2,-3.3 2,-5.21 0,-1.42 -0.57,-2.54 -1.65,-3.25 A 6.75,6.75 0 0 0 6.35,0.09 Z m 0,0.03 C 6.91,0.15 7.44,0.2 7.9,0.31 a 5.82,5.82 0 0 1 1.6,0.66 3.65,3.65 0 0 1 1.24,1.36 c 0.14,0.27 0.25,0.57 0.32,0.88 A 4.61,4.61 0 0 1 10.92,5.74 C 10.77,6.26 10.56,6.78 10.34,7.26 9.9,8.23 9.39,9.06 9.16,9.43 A 15.2,15.2 0 0 1 7.51,11.58 4.9,4.9 0 0 1 6.59,12.36 0.96,0.96 0 0 1 6.35,12.46 0.96,0.96 0 0 1 6.11,12.36 4.76,4.76 0 0 1 5.19,11.58 14.41,14.41 0 0 1 3.54,9.43 19.2,19.2 0 0 1 2.36,7.26 C 2.14,6.78 1.93,6.26 1.78,5.74 A 4.6,4.6 0 0 1 1.64,3.22 3.73,3.73 0 0 1 2.48,1.58 3.65,3.65 0 0 1 3.93,0.58 6.83,6.83 0 0 1 6.35,0.13 Z"
     id="path94"
     inkscape:connector-curvature="0"
     style="opacity:0.3" />
  <path
     d="M 37.98,2 H 64.65 V 15.33 H 37.98 Z"
     transform="matrix(0.06494,0,0,0.06655,3.02,0.74)"
     id="path96"
     inkscape:connector-curvature="0"
     style="opacity:0.92000002;fill-rule:evenodd;filter:url(#k)" />
  <path
     d="m 3.88,1.4 c -0.3,0 -0.53,0.24 -0.53,0.54 v 6.3 c 0,0.2 0.16,0.35 0.36,0.35 h 5.28 c 0.2,0 0.35,-0.16 0.35,-0.35 V 1.94 C 9.34,1.64 9.11,1.41 8.81,1.41 Z"
     id="path98"
     style="fill:url(#l)"
     inkscape:connector-curvature="0" />
  <path
     d="M 3.84,1.54 C 3.64,1.54 3.49,1.7 3.49,1.9 v 6.38 c 0,0.1 0.08,0.18 0.17,0.18 h 5.37 c 0.1,0 0.18,-0.08 0.18,-0.18 V 1.9 C 9.21,1.7 9.05,1.54 8.85,1.54 Z"
     id="path100"
     style="fill:url(#m)"
     inkscape:connector-curvature="0" />
  <path
     d="m 15.09,19 h 71.99 c 0.97,0 1.75,0.78 1.75,1.75 v 67.42 c -0.45,6.24 -1.18,13.61 -2.2,18.7 0,0.98 -0.78,1.76 -1.75,1.76 -4.27,1.1 -10.02,0.61 -15.4,0.8 h -55.4 c -0.97,0 -0.75,-0.78 -0.75,-1.76 V 20.75 c 0,-0.97 0.79,-1.75 1.76,-1.75 z"
     transform="matrix(0.06648,0,0,0.06727,2.95,0.8)"
     id="path102"
     inkscape:connector-curvature="0"
     style="fill:#191919;filter:url(#n)" />
  <path
     d="M 4.02,2.14 A 0.08,0.08 0 0 0 3.95,2.21 v 5.7 c 0,0.04 0.04,0.07 0.08,0.07 h 3.56 c 0.39,0 0.78,-0.13 0.93,-0.2 0.01,0 0.03,-0.01 0.03,-0.03 L 8.6,7.58 A 6.54,6.54 0 0 0 8.74,6.64 V 2.21 A 0.08,0.08 0 0 0 8.67,2.14 H 4.03 Z"
     id="path104"
     style="fill:url(#o)"
     inkscape:connector-curvature="0" />
  <path
     d="m 27.33,12.67 h 49 c 1.26,4.58 1.15,11.7 -0.3,17.9 l -49,0.1 c -1.77,-5.78 -2.23,-13.3 0.3,-18 z"
     transform="matrix(0.0629,0,0,0.06408,3.1,0.77)"
     id="path106"
     inkscape:connector-curvature="0"
     style="fill-opacity:0.63999999;filter:url(#p)" />
  <rect
     width="3.0599999"
     height="1.0599999"
     x="4.8200002"
     y="1.54"
     rx="0"
     ry="0"
     id="rect108"
     style="fill:url(#q)" />
  <path
     d="M 5.48,1.76 H 7.22 V 0.87 H 5.48 Z"
     id="path110"
     style="fill:url(#r)"
     inkscape:connector-curvature="0" />
  <path
     d="M 4.17,5.75 5.43,7.25 8.68,3.86 5.51,6.1 4.81,5.05 Z"
     id="path112"
     inkscape:connector-curvature="0"
     style="fill:#729ed4;fill-rule:evenodd" />
</svg>
